X:1
T:Partition sans titre
C:Compositeur / Arrangeur
L:1/8
M:4/4
I:linebreak $
K:G
V:1 treble nm="Violon" snm="Vln."
V:1
"D" d2 ef"G" g2 fe |"D" d2 ef"G" g3 B |"C" c2 PB2 AGAc |1"G" B2 G2 GABc :|2"G" B2 G2 G3 A |: %5
"G" BcBA G2 BG |"D" DFAF"G" G2 G2 | BcBA G2 g2 |"D" fdfa"G" g2 g2 ::"G" DFGA B2 AG | %10
"D" A2 B2 c3 c |"G" Bcdc B2 AB |1"D" cBAF"G" G2 PE2 :|2"D" cBAF"G" G2 B2 |] %14
